public/images/icons/re-badges/badge-support.svg

<svg width="66" height="54" viewBox="0 0 66 54" fill="none" xmlns="http://www.w3.org/2000/svg">
<g id="Group 2391">
<g id="Vector">
<path d="M22.5352 19.2089C22.8476 18.8965 23.3541 18.8965 23.6665 19.2089L33.8489 29.3913C34.1613 29.7037 34.1613 30.2102 33.8489 30.5226L13.1528 51.2187C12.6489 51.7226 11.7871 51.3657 11.7871 50.653L11.7871 42.0706C11.7871 41.6288 11.429 41.2706 10.9871 41.2706H2.40481C1.69208 41.2706 1.33515 40.4089 1.83913 39.905L22.5352 19.2089Z" fill="#0084FF"/>
<path fill-rule="evenodd" clip-rule="evenodd" d="M24.7979 18.0775L34.9802 28.2599C35.9175 29.1971 35.9175 30.7167 34.9803 31.654L14.2842 52.35C12.7723 53.862 10.1871 52.7912 10.1871 50.653L10.1871 42.8706H2.40481C0.26663 42.8706 -0.804155 40.2855 0.707754 38.7736L21.4038 18.0775C22.3411 17.1403 23.8607 17.1403 24.7979 18.0775ZM23.6665 19.2089C23.3541 18.8965 22.8476 18.8965 22.5352 19.2089L1.83913 39.905C1.33515 40.4089 1.69208 41.2706 2.40481 41.2706H10.9871C11.429 41.2706 11.7871 41.6288 11.7871 42.0706L11.7871 50.653C11.7871 51.3657 12.6489 51.7226 13.1528 51.2187L33.8489 30.5226C34.1613 30.2102 34.1613 29.7037 33.8489 29.3913L23.6665 19.2089Z" fill="#3F4951"/>
<path d="M43.3531 19.2089C43.0407 18.8965 42.5342 18.8965 42.2217 19.2089L32.0394 29.3913C31.727 29.7037 31.727 30.2102 32.0394 30.5226L52.7355 51.2187C53.2394 51.7226 54.1011 51.3657 54.1011 50.653V42.0706C54.1011 41.6288 54.4593 41.2706 54.9011 41.2706H63.4835C64.1962 41.2706 64.5531 40.4089 64.0492 39.905L43.3531 19.2089Z" fill="#0084FF"/>
<path fill-rule="evenodd" clip-rule="evenodd" d="M41.0904 18.0775L30.908 28.2599C29.9708 29.1971 29.9708 30.7167 30.908 31.654L51.6041 52.35C53.116 53.862 55.7011 52.7912 55.7011 50.653V42.8706H63.4835C65.6217 42.8706 66.6924 40.2855 65.1805 38.7736L44.4845 18.0775C43.5472 17.1403 42.0276 17.1403 41.0904 18.0775ZM42.2217 19.2089C42.5342 18.8965 43.0407 18.8965 43.3531 19.2089L64.0492 39.905C64.5531 40.4089 64.1962 41.2706 63.4835 41.2706H54.9011C54.4593 41.2706 54.1011 41.6288 54.1011 42.0706V50.653C54.1011 51.3657 53.2394 51.7226 52.7355 51.2187L32.0394 30.5226C31.727 30.2102 31.727 29.7037 32.0394 29.3913L42.2217 19.2089Z" fill="#3F4951"/>
<path d="M27.9974 3.00638C29.9358 1.13121 33.012 1.13121 34.9504 3.00638L35.1559 3.20523C36.2644 4.27754 37.8056 4.77832 39.3327 4.56233L39.6158 4.52228C42.2862 4.14457 44.7749 5.95274 45.2409 8.60912L45.2903 8.89082C45.5568 10.4099 46.5093 11.7209 47.8717 12.4438L48.1243 12.5778C50.5067 13.8418 51.4573 16.7675 50.2729 19.1904L50.1473 19.4474C49.47 20.8329 49.47 22.4535 50.1473 23.8391L50.2729 24.096C51.4573 26.519 50.5067 29.4446 48.1243 30.7087L47.8717 30.8427C46.5093 31.5655 45.5568 32.8766 45.2903 34.3956L45.2409 34.6773C44.7749 37.3337 42.2862 39.1419 39.6158 38.7642L39.3327 38.7241C37.8056 38.5081 36.2644 39.0089 35.1559 40.0812L34.9504 40.2801C33.012 42.1553 29.9358 42.1553 27.9974 40.2801L27.7919 40.0812C26.6834 39.0089 25.1422 38.5081 23.6151 38.7241L23.332 38.7642C20.6616 39.1419 18.1729 37.3337 17.7069 34.6773L17.6575 34.3956C17.391 32.8766 16.4385 31.5655 15.0761 30.8427L14.8235 30.7087C12.4411 29.4446 11.4905 26.519 12.6749 24.096L12.8005 23.8391C13.4778 22.4535 13.4778 20.8329 12.8005 19.4474L12.6749 19.1905C11.4905 16.7675 12.4411 13.8418 14.8235 12.5778L15.0761 12.4438C16.4385 11.7209 17.391 10.4099 17.6575 8.89082L17.7069 8.60912C18.1729 5.95274 20.6616 4.14457 23.332 4.52228L23.6151 4.56233C25.1422 4.77832 26.6834 4.27754 27.7919 3.20523L27.9974 3.00638Z" fill="white"/>
<path fill-rule="evenodd" clip-rule="evenodd" d="M36.0629 1.85642L36.2684 2.05527C37.0221 2.78444 38.0702 3.12497 39.1086 2.9781L39.3918 2.93805C42.9166 2.43947 46.2018 4.82625 46.8168 8.33268L46.8663 8.61438C47.0474 9.64733 47.6952 10.5389 48.6216 11.0304L48.8742 11.1644C52.019 12.8329 53.2738 16.6948 51.7103 19.8931L51.5847 20.1501C51.1242 21.0922 51.1242 22.1942 51.5847 23.1364L51.7103 23.3933C53.2738 26.5916 52.019 30.4535 48.8742 32.122L48.6216 32.2561C47.6952 32.7476 47.0474 33.6391 46.8663 34.6721L46.8168 34.9538C46.2018 38.4602 42.9166 40.847 39.3918 40.3484L39.1086 40.3084C38.0702 40.1615 37.0221 40.502 36.2684 41.2312L36.0629 41.43C33.5042 43.9053 29.4436 43.9053 26.885 41.43L26.6794 41.2312C25.9257 40.502 24.8776 40.1615 23.8392 40.3084L23.556 40.3484C20.0312 40.847 16.746 38.4602 16.131 34.9538L16.0816 34.6721C15.9004 33.6391 15.2526 32.7476 14.3262 32.2561L14.0736 32.122C10.9289 30.4535 9.67405 26.5916 11.2375 23.3933L11.3631 23.1364C11.8236 22.1942 11.8236 21.0922 11.3631 20.1501L11.2375 19.8931C9.67405 16.6948 10.9289 12.8329 14.0736 11.1644L14.3262 11.0304C15.2526 10.5389 15.9004 9.64732 16.0816 8.61438L16.131 8.33268C16.746 4.82625 20.0312 2.43947 23.556 2.93805L23.8392 2.9781C24.8776 3.12497 25.9257 2.78444 26.6794 2.05527L26.885 1.85642C29.4436 -0.618806 33.5042 -0.618806 36.0629 1.85642ZM34.9504 3.00638C33.012 1.13121 29.9358 1.13121 27.9974 3.00638L27.7919 3.20523C26.6834 4.27754 25.1422 4.77832 23.6151 4.56233L23.332 4.52228C20.6616 4.14457 18.1729 5.95274 17.7069 8.60912L17.6575 8.89082C17.391 10.4099 16.4385 11.7209 15.0761 12.4438L14.8235 12.5778C12.4411 13.8418 11.4905 16.7675 12.6749 19.1905L12.8005 19.4474C13.4778 20.8329 13.4778 22.4535 12.8005 23.8391L12.6749 24.096C11.4905 26.519 12.4411 29.4446 14.8235 30.7087L15.0761 30.8427C16.4385 31.5655 17.391 32.8766 17.6575 34.3956L17.7069 34.6773C18.1729 37.3337 20.6616 39.1419 23.332 38.7642L23.6151 38.7241C25.1422 38.5081 26.6834 39.0089 27.7919 40.0812L27.9974 40.2801C29.9358 42.1553 33.012 42.1553 34.9504 40.2801L35.1559 40.0812C36.2644 39.0089 37.8056 38.5081 39.3327 38.7241L39.6158 38.7642C42.2862 39.1419 44.7749 37.3337 45.2409 34.6773L45.2903 34.3956C45.5568 32.8766 46.5093 31.5655 47.8717 30.8427L48.1243 30.7087C50.5067 29.4446 51.4573 26.519 50.2729 24.096L50.1473 23.8391C49.47 22.4535 49.47 20.8329 50.1473 19.4474L50.2729 19.1904C51.4573 16.7675 50.5067 13.8418 48.1243 12.5778L47.8717 12.4438C46.5093 11.7209 45.5568 10.4099 45.2903 8.89082L45.2409 8.60912C44.7749 5.95274 42.2862 4.14457 39.6158 4.52228L39.3327 4.56233C37.8056 4.77832 36.2644 4.27754 35.1559 3.20523L34.9504 3.00638Z" fill="#3F4951"/>
<path d="M22.4886 29.2508C22.4886 30.0263 23.1334 30.6549 23.9289 30.6549H39.5023C40.2977 30.6549 40.9426 30.0263 40.9426 29.2508C40.9426 28.4753 40.2977 27.8466 39.5023 27.8466H23.9289C23.1334 27.8466 22.4886 28.4753 22.4886 29.2508Z" fill="#CBE1FF"/>
<path d="M32.2054 16.7567C32.1315 16.3403 32.437 15.9689 32.8087 15.7672C33.4991 15.3925 33.9661 14.6738 33.9661 13.8489C33.9661 12.6373 32.9585 11.6549 31.7156 11.6549C30.4727 11.6549 29.4651 12.6373 29.4651 13.8489C29.4651 14.6962 29.9578 15.4314 30.6792 15.797C31.072 15.996 31.4002 16.3813 31.3169 16.8137C30.7905 19.5494 29.2465 21.55 27.2915 21.6851C25.6182 21.8006 24.0506 20.5215 23.065 18.4974C22.8756 18.1084 23.0924 17.6603 23.384 17.3408C23.667 17.0308 23.8389 16.6223 23.8389 16.1746C23.8389 15.2052 23.0328 14.4194 22.0385 14.4194C21.0441 14.4194 20.2381 15.2052 20.2381 16.1746C20.2381 16.9094 20.7013 17.5388 21.3585 17.8003C21.7088 17.9397 22.0381 18.1937 22.1075 18.5642L23.594 26.492C23.665 26.8704 23.9953 27.1446 24.3803 27.1446H39.0058C39.3908 27.1446 39.7212 26.8704 39.7921 26.492L41.3902 17.9688C41.3945 17.946 41.4146 17.9298 41.4377 17.9298C42.432 17.9298 43.2381 17.144 43.2381 16.1746C43.2381 15.2052 42.432 14.4194 41.4377 14.4194C40.4433 14.4194 39.6373 15.2052 39.6373 16.1746C39.6373 16.6438 39.8262 17.07 40.1338 17.3849C40.4469 17.7054 40.6868 18.168 40.4914 18.5712C39.5062 20.6038 37.935 21.8893 36.2578 21.7735C34.2683 21.6361 32.7044 19.5667 32.2054 16.7567Z" fill="#CBE1FF"/>
<path fill-rule="evenodd" clip-rule="evenodd" d="M23.4473 19.198C24.4313 20.8105 25.8206 21.7867 27.2915 21.6851C29.0651 21.5625 30.5004 19.9046 31.1446 17.5553C31.2014 17.3481 31.2521 17.1355 31.2963 16.9181C31.3033 16.8834 31.3102 16.8486 31.3169 16.8137C31.3696 16.54 31.2575 16.2851 31.0684 16.0845C30.9588 15.9681 30.8234 15.87 30.6792 15.797C29.9578 15.4314 29.4651 14.6962 29.4651 13.8489C29.4651 12.6373 30.4727 11.6549 31.7156 11.6549C32.9585 11.6549 33.9661 12.6373 33.9661 13.8489C33.9661 14.6738 33.4991 15.3925 32.8087 15.7672C32.6689 15.8431 32.5385 15.9429 32.4341 16.0601C32.2609 16.2546 32.1593 16.4969 32.2054 16.7567C32.2195 16.8362 32.2345 16.915 32.2503 16.9933C32.2892 17.186 32.3332 17.3749 32.382 17.5597C33.0148 19.9535 34.4631 21.6495 36.2578 21.7735C37.607 21.8666 38.8876 21.053 39.8498 19.6731C40.0836 19.3376 40.2987 18.9687 40.4914 18.5712C40.6144 18.3174 40.5649 18.04 40.4332 17.7893C40.3872 17.7017 40.3311 17.6174 40.2689 17.5385C40.2263 17.4845 40.1809 17.4331 40.1338 17.3849C39.8262 17.07 39.6373 16.6438 39.6373 16.1746C39.6373 15.2052 40.4433 14.4194 41.4377 14.4194C42.432 14.4194 43.2381 15.2052 43.2381 16.1746C43.2381 17.0468 42.5855 17.7705 41.7303 17.9067C41.6351 17.9219 41.5373 17.9298 41.4377 17.9298C41.4146 17.9298 41.3945 17.946 41.3902 17.9688L39.7921 26.492C39.7813 26.5497 39.7644 26.6051 39.7422 26.6574C39.6893 26.7822 39.606 26.8898 39.5023 26.9719C39.3649 27.0806 39.1917 27.1446 39.0058 27.1446H24.3803C24.2142 27.1446 24.0582 27.0935 23.9289 27.005C23.8055 26.9207 23.7063 26.8022 23.6457 26.6616C23.6226 26.6081 23.6051 26.5513 23.594 26.492L22.1075 18.5642C22.0694 18.3609 21.9531 18.1926 21.7979 18.0592C21.6704 17.9494 21.5166 17.8632 21.3585 17.8003C20.7013 17.5388 20.2381 16.9094 20.2381 16.1746C20.2381 15.2052 21.0441 14.4194 22.0385 14.4194C23.0328 14.4194 23.8389 15.2052 23.8389 16.1746C23.8389 16.6223 23.667 17.0308 23.384 17.3408C23.2667 17.4694 23.1615 17.6187 23.09 17.7766C22.9995 17.9764 22.9629 18.1899 23.0239 18.3924C23.0345 18.4278 23.0481 18.4628 23.065 18.4974C23.1842 18.7422 23.3119 18.9761 23.4473 19.198ZM22.5105 27.0549C22.469 26.9456 22.4367 26.8314 22.4146 26.7131L20.9558 18.9333C20.9436 18.9273 20.9299 18.9213 20.9149 18.9153C19.8304 18.4838 19.0381 17.4318 19.0381 16.1746C19.0381 14.5139 20.4103 13.2194 22.0385 13.2194C23.6666 13.2194 25.0389 14.5139 25.0389 16.1746C25.0389 16.9367 24.7446 17.6301 24.2703 18.1498C24.2621 18.1588 24.2543 18.1677 24.2471 18.1765C25.1298 19.8635 26.289 20.5515 27.2088 20.488C28.2881 20.4133 29.557 19.232 30.086 16.8411C29.0148 16.2758 28.2651 15.1569 28.2651 13.8489C28.2651 11.946 29.8389 10.4549 31.7156 10.4549C33.5923 10.4549 35.1661 11.946 35.1661 13.8489C35.1661 15.1203 34.4572 16.2136 33.4341 16.7925C33.6696 17.9345 34.0965 18.8701 34.6131 19.5219C35.1629 20.2157 35.7648 20.5366 36.3405 20.5763C37.2618 20.6399 38.4235 19.9493 39.3063 18.2571C39.2968 18.246 39.2864 18.2347 39.2754 18.2234C38.7606 17.6965 38.4373 16.9738 38.4373 16.1746C38.4373 14.5139 39.8095 13.2194 41.4377 13.2194C43.0658 13.2194 44.4381 14.5139 44.4381 16.1746C44.4381 17.4846 43.5841 18.5668 42.4243 18.9654L40.9716 26.7131C40.9509 26.8233 40.9215 26.9299 40.8841 27.0323C41.6327 27.4859 42.1426 28.299 42.1426 29.2508C42.1426 30.7176 40.9315 31.8549 39.5023 31.8549H23.9289C22.4996 31.8549 21.2886 30.7176 21.2886 29.2508C21.2886 28.3146 21.7819 27.5126 22.5105 27.0549ZM40.1404 27.9916C39.9481 27.8988 39.7314 27.8466 39.5023 27.8466H23.9289C23.6893 27.8466 23.4634 27.9037 23.2647 28.0045C22.8035 28.2386 22.4886 28.7088 22.4886 29.2508C22.4886 30.0263 23.1334 30.6549 23.9289 30.6549H39.5023C40.2977 30.6549 40.9426 30.0263 40.9426 29.2508C40.9426 28.6987 40.6157 28.221 40.1404 27.9916Z" fill="#3F4951"/>
</g>
</g>
</svg>

<svg fill="none" viewBox="0 0 66 54"><path fill="#0084FF" d="M22.535 19.209a.8.8 0 011.131 0L33.85 29.39a.8.8 0 010 1.132L13.153 51.219a.8.8 0 01-1.366-.566v-8.582a.8.8 0 00-.8-.8H2.405a.8.8 0 01-.566-1.366l20.696-20.696z"/><path fill="#3F4951" fill-rule="evenodd" d="M24.798 18.078L34.98 28.26a2.4 2.4 0 010 3.394L14.284 52.35c-1.512 1.512-4.097.441-4.097-1.697v-7.782H2.405c-2.138 0-3.21-2.586-1.697-4.097l20.696-20.697a2.4 2.4 0 013.394 0zm-1.131 1.13a.8.8 0 00-1.132 0L1.84 39.906a.8.8 0 00.566 1.366h8.582a.8.8 0 01.8.8v8.582a.8.8 0 001.366.566L33.85 30.524a.8.8 0 000-1.132L23.667 19.21z" clip-rule="evenodd"/><path fill="#0084FF" d="M43.353 19.209a.8.8 0 00-1.131 0L32.039 29.39a.8.8 0 000 1.132l20.697 20.696a.8.8 0 001.365-.566V42.07a.8.8 0 01.8-.8h8.582a.8.8 0 00.566-1.366L43.353 19.209z"/><path fill="#3F4951" fill-rule="evenodd" d="M41.09 18.078L30.908 28.26a2.4 2.4 0 000 3.394L51.604 52.35c1.512 1.512 4.097.441 4.097-1.697v-7.782h7.782c2.139 0 3.21-2.586 1.697-4.097L44.484 18.077a2.4 2.4 0 00-3.394 0zm1.132 1.13a.8.8 0 011.131 0L64.05 39.906a.8.8 0 01-.566 1.366h-8.582a.8.8 0 00-.8.8v8.582a.8.8 0 01-1.365.566L32.038 30.523a.8.8 0 010-1.132L42.222 19.21z" clip-rule="evenodd"/><path fill="#fff" d="M27.997 3.006a5 5 0 016.953 0l.206.2a5 5 0 004.177 1.356l.283-.04A5 5 0 0145.24 8.61l.05.282a5 5 0 002.58 3.553l.253.134a5 5 0 012.149 6.612l-.126.257a5 5 0 000 4.392l.126.257a5 5 0 01-2.149 6.613l-.252.134a5 5 0 00-2.582 3.553l-.05.281a5 5 0 01-5.624 4.087l-.283-.04a5 5 0 00-4.177 1.357l-.206.2a5 5 0 01-6.953 0l-.205-.2a5 5 0 00-4.177-1.357l-.283.04a5 5 0 01-5.625-4.087l-.05-.281a5 5 0 00-2.58-3.553l-.254-.134a5 5 0 01-2.148-6.613l.125-.257a5 5 0 000-4.392l-.125-.256a5 5 0 012.148-6.613l.253-.134a5 5 0 002.581-3.553l.05-.282a5 5 0 015.625-4.087l.283.04a5 5 0 004.177-1.357l.205-.199z"/><path fill="#3F4951" fill-rule="evenodd" d="M36.063 1.856l.205.2a3.4 3.4 0 002.84.922l.284-.04a6.6 6.6 0 017.425 5.395l.05.281a3.4 3.4 0 001.755 2.416l.252.134a6.6 6.6 0 012.836 8.73l-.125.256a3.4 3.4 0 000 2.986l.125.257a6.6 6.6 0 01-2.836 8.729l-.252.134a3.4 3.4 0 00-1.756 2.416l-.05.282a6.6 6.6 0 01-7.424 5.394l-.283-.04a3.4 3.4 0 00-2.84.923l-.206.199a6.6 6.6 0 01-9.178 0l-.206-.199a3.4 3.4 0 00-2.84-.923l-.283.04a6.6 6.6 0 01-7.425-5.394l-.05-.282a3.4 3.4 0 00-1.755-2.416l-.252-.134a6.6 6.6 0 01-2.836-8.729l.125-.257a3.4 3.4 0 000-2.986l-.125-.257a6.6 6.6 0 012.836-8.729l.252-.134a3.4 3.4 0 001.756-2.416l.049-.281a6.6 6.6 0 017.425-5.395l.283.04a3.4 3.4 0 002.84-.923l.206-.199a6.6 6.6 0 019.178 0zm-1.113 1.15a5 5 0 00-6.953 0l-.205.2a5 5 0 01-4.177 1.356l-.283-.04a5 5 0 00-5.625 4.087l-.05.282a5 5 0 01-2.58 3.553l-.254.134a5 5 0 00-2.148 6.613l.125.256a5 5 0 010 4.392l-.125.257a5 5 0 002.148 6.613l.253.134a5 5 0 012.581 3.553l.05.281a5 5 0 005.625 4.087l.283-.04a5 5 0 014.177 1.357l.205.2a5 5 0 006.953 0l.206-.2a5 5 0 014.177-1.357l.283.04a5 5 0 005.625-4.087l.05-.281a5 5 0 012.58-3.553l.253-.134a5 5 0 002.149-6.613l-.126-.257a5 5 0 010-4.392l.126-.257a5 5 0 00-2.149-6.612l-.252-.134A5 5 0 0145.29 8.89l-.05-.282a5 5 0 00-5.624-4.087l-.283.04a5 5 0 01-4.177-1.357l-.206-.199z" clip-rule="evenodd"/><path fill="#CBE1FF" d="M22.489 29.25c0 .776.644 1.405 1.44 1.405h15.573c.796 0 1.44-.629 1.44-1.404 0-.776-.644-1.404-1.44-1.404H23.93c-.796 0-1.44.628-1.44 1.404zm9.716-12.493c-.073-.417.232-.788.604-.99a2.186 2.186 0 001.157-1.918c0-1.212-1.008-2.194-2.25-2.194-1.243 0-2.25.982-2.25 2.194 0 .847.492 1.582 1.213 1.948.393.199.721.584.638 1.017-.526 2.735-2.07 4.736-4.026 4.871-1.673.116-3.24-1.163-4.226-3.188-.19-.389.027-.837.319-1.156.283-.31.455-.719.455-1.166 0-.97-.806-1.756-1.8-1.756-.995 0-1.8.786-1.8 1.756 0 .734.462 1.364 1.12 1.625.35.14.68.394.748.764l1.487 7.928a.8.8 0 00.786.653h14.626a.8.8 0 00.786-.653l1.598-8.523a.048.048 0 01.048-.04c.994 0 1.8-.785 1.8-1.754 0-.97-.806-1.756-1.8-1.756-.995 0-1.8.786-1.8 1.756 0 .469.188.895.496 1.21.313.32.553.783.357 1.186-.985 2.033-2.556 3.318-4.233 3.202-1.99-.137-3.554-2.206-4.053-5.016z"/><path fill="#3F4951" fill-rule="evenodd" d="M23.447 19.198c.984 1.613 2.374 2.589 3.845 2.487 1.773-.122 3.208-1.78 3.853-4.13a9.784 9.784 0 00.172-.741c.053-.274-.06-.529-.249-.73a1.417 1.417 0 00-.389-.287 2.188 2.188 0 01-1.214-1.948c0-1.212 1.008-2.194 2.25-2.194 1.244 0 2.251.982 2.251 2.194 0 .825-.467 1.543-1.157 1.918-.14.076-.27.176-.375.293-.173.195-.275.437-.229.697a10.208 10.208 0 00.177.803c.633 2.393 2.081 4.09 3.876 4.213 1.349.094 2.63-.72 3.592-2.1.234-.335.449-.704.641-1.102.123-.254.074-.531-.058-.782a1.64 1.64 0 00-.164-.25 1.936 1.936 0 00-.135-.154 1.726 1.726 0 01-.497-1.21c0-.97.806-1.756 1.8-1.756.995 0 1.801.786 1.801 1.756 0 .872-.652 1.595-1.508 1.732a1.856 1.856 0 01-.292.023.048.048 0 00-.048.039l-1.598 8.523a.8.8 0 01-.786.653H24.38a.798.798 0 01-.786-.653l-1.486-7.928a.883.883 0 00-.31-.505 1.56 1.56 0 00-.44-.259 1.757 1.757 0 01-1.12-1.625c0-.97.806-1.756 1.8-1.756.995 0 1.8.786 1.8 1.756 0 .447-.171.856-.454 1.166a1.705 1.705 0 00-.294.436c-.09.2-.127.413-.066.615a.69.69 0 00.041.105c.12.245.247.48.382.701zm-.936 7.857a1.994 1.994 0 01-.096-.342l-1.46-7.78a2.956 2.956 0 01-1.918-2.759c.001-1.66 1.373-2.955 3.002-2.955 1.628 0 3 1.295 3 2.956a2.924 2.924 0 01-.792 2.002c.883 1.686 2.042 2.375 2.962 2.311 1.08-.075 2.348-1.256 2.877-3.647a3.386 3.386 0 01-1.82-2.992c0-1.903 1.573-3.394 3.45-3.394 1.876 0 3.45 1.491 3.45 3.394a3.384 3.384 0 01-1.732 2.944c.236 1.142.663 2.077 1.18 2.729.549.694 1.15 1.015 1.727 1.054.92.064 2.082-.627 2.965-2.319a2.926 2.926 0 01-.869-2.082c0-1.661 1.372-2.956 3-2.956 1.629 0 3.001 1.295 3.001 2.956 0 1.31-.854 2.392-2.014 2.79l-1.452 7.748c-.021.11-.05.217-.088.32a2.585 2.585 0 011.259 2.218c0 1.467-1.212 2.604-2.64 2.604H23.928c-1.43 0-2.64-1.137-2.64-2.604 0-.936.493-1.738 1.221-2.196zm17.63.937a1.465 1.465 0 00-.639-.145H23.93c-.24 0-.466.057-.664.157a1.4 1.4 0 00-.776 1.247c0 .775.644 1.404 1.44 1.404h15.573c.796 0 1.44-.629 1.44-1.404 0-.552-.326-1.03-.802-1.26z" clip-rule="evenodd"/></svg>
